assets/icons/qvision/lock_clock.svg

<svg xmlns="http://www.w3.org/2000/svg" height="24" viewBox="0 0 24 24" width="24"><path d="M0 0h24v24H0V0z" fill="none"/><path d="M14.5 14.2l2.9 1.7-.8 1.3L13 15v-5h1.5v4.2zM22 14c0 4.41-3.59 8-8 8-2.02 0-3.86-.76-5.27-2H4c-1.15 0-2-.85-2-2V9c0-1.12.89-1.96 2-2v-.5C4 4.01 6.01 2 8.5 2c2.34 0 4.24 1.79 4.46 4.08.34-.05.69-.08 1.04-.08 4.41 0 8 3.59 8 8zM6 7h5v-.74C10.88 4.99 9.8 4 8.5 4 7.12 4 6 5.12 6 6.5V7zm14 7c0-3.31-2.69-6-6-6s-6 2.69-6 6 2.69 6 6 6 6-2.69 6-6z"/></svg>

<svg width="24" height="24" viewBox="0 0 24 24" fill="none" xmlns="http://www.w3.org/2000/svg">
<g clip-path="url(#clip0_147_4395)">
<path d="M14.5 14.2L17.4 15.9L16.6 17.2L13 15V10H14.5V14.2ZM22 14C22 18.41 18.41 22 14 22C11.98 22 10.14 21.24 8.73 20H4C2.85 20 2 19.15 2 18V9C2 7.88 2.89 7.04 4 7V6.5C4 4.01 6.01 2 8.5 2C10.84 2 12.74 3.79 12.96 6.08C13.3 6.03 13.65 6 14 6C18.41 6 22 9.59 22 14ZM6 7H11V6.26C10.88 4.99 9.8 4 8.5 4C7.12 4 6 5.12 6 6.5V7ZM20 14C20 10.69 17.31 8 14 8C10.69 8 8 10.69 8 14C8 17.31 10.69 20 14 20C17.31 20 20 17.31 20 14Z" fill="#323232"/>
</g>
<defs>
<clipPath id="clip0_147_4395">
<rect width="24" height="24" fill="white"/>
</clipPath>
</defs>
</svg>
